X:1025
T:Her Golden Hair Hanging Down Her Back
O:ireland
C:Junior Crehan
R:hornpipe
Z:id:hn-hornpipe-100
M:C|
K:Ador
cd|edce d2cA|GE~E2 G2cd|edce d2cd|eaag a2g=f|
edce d2cA|GE~E2 GAcd|edcA dcAG|A2AG AB:|
|:cd|egg^f gede|cAAB c3d|eaag a2g=f|edce d2cd|
egg^f gede|cAAB cBcd|edcA dcAG|A2AG AB:|
This file contains 6 hornpipes (#101 - #106).
You can find more abc tune files at http://home1.swipnet.se/~w-11382/abc.htm
I've transcribed them as I have learnt them, which does not necessarily mean
that I play them that way nowadays. Many of the tunes include variations and
different versions. If there is a source (S:) or discography (D:) included the
version transcribed might still not be exactly as that source played the tune,
since I might have changed the tune around a bit when I learnt it.
The tunes were learnt from sessions, from friends or from recordings.
When I've included discography, it's often just a reference to what recordings
the tune appears on.
Last updated 10 June 2001.
(c) Copyright 1996-2001 Henrik Norbeck. This file:
- May be distributed freely (with restrictions below).
- May not be used for commercial purposes (such as printing a tune book to sell).
- This file (or parts of it) may not be made available on a web page for
download without permission from me.
- This copyright notice must be kept, except when e-mailing individual tunes.
- May be printed on paper for personal use.
- Questions? E-mail: henrik.norbeck@mailbox.swipnet.se
R:hornpipe
M:C|
Z:id:hn-hornpipe-%X






